images/svg/logo.svg

<svg height="195.3" viewBox="0 0 195.3 195.3" width="195.3" xmlns="http://www.w3.org/2000/svg"><path d="m0 0v195.3h195.3v-195.3zm36.9 176.7h-18.1v-158.7h121.4v122.5h-48.7l-.2-33.8h30.7v-70.1h-85.1zm139.6.2h-121.5v-122.4h48.8l.2 33.7h-30.7l-.2 70.2h85.3v-140.2h18.1z" fill="#fff"/></svg>

<svg xmlns="http://www.w3.org/2000/svg" width="195.3" height="195.3" viewBox="0 0 195.3 195.3"><title>edexAsset 4logo</title><g id="Layer_2" data-name="Layer 2"><g id="Layer_1-2" data-name="Layer 1"><path d="M0,0V195.3H195.3V0ZM36.9,176.7H18.8V18H140.2V140.5H91.5l-.2-33.8H122V36.6H36.9Zm139.6.2H55V54.5h48.8l.2,33.7H73.3l-.2,70.2h85.3V18.2h18.1Z" fill="#fff"/></g></g></svg>
